X:1
T:Title
%%score 1 2
L:1/8
Q:1/4=100
M:3/4
K:F
V:1 treble nm="Grand Piano, Soprano"
V:2 bass nm="Choir Pad, On Calvary (MacGill)"
V:1
 C2 [CF][CF] [CF][CF] | [CE][CE] [B,D][B,D] C2 | [CF]2 [CF][CE] [CE]2 | %3
w: By~Jacob~Wakefield~MacGill * * * *|||
 z [cec'] [egc'][egb] [egb]2 | C2 [EG][EG] [EG][EG] | FF [CE]D [CE]2 | [GB]2 [FA][F_A] [F=A]2 | %7
w: ||||
 z [db] [cac'][=Bgb] [cac']2 | C2 [Ac][Ac] [Ac][Ac] | [Gd][Ac] [GB][FA] [EG]2 | F2 [DA][DG] [DG]2 | %11
w: ||||
 z [dd'] [ebe'][dbd'] [dbd']2 | D2 [Gc][GB] [GB][GB] | [Ac][GB] [GB]D D2 | [CE]2 [EG]F [CF]2- | %15
w: ||||
 [CF]6 |] %16
w: |
V:2
 [F,A,]2 [F,A,][F,A,] [F,A,][F,A,] | F,F, [F,C][F,C] [F,A,]2 | [F,A,]2 [F,A,][C,C] [C,G,]2 | %3
 z2 C,2 [A,C]2 | [C,C]2 [C,B,][C,B,] [C,B,][C,B,] | [C,A,][C,A,] [C,G,][C,F,] [C,G,]2 | %6
 [C,C]2 [F,C][F,=B,] [F,C]2 | z2 F,2 [A,C]2 | [F,A,]2 [F,F][F,F][K:treble] [F,F][F,F] | %9
 [B,E][A,F][K:bass] [E,C][F,C] C2 | [A,C]2 B,B, B,2 | z2 B,,2 [D,G,B,]2 | %12
 [G,B,]2 [G,D][G,D] [G,D][G,D] | [^F,D][G,D] [G,D][G,B,] [B,,B,]2 | [C,B,]2 [C,B,][F,A,] [F,A,]2- | %15
 [F,A,]6 |] %16

